Modules/BetterCms.Module.Root/Scss/base_64/icons/overlay-edit.svg

<svg xmlns="http://www.w3.org/2000/svg" width="18" height="18" viewBox="0 0 18 18">
 <path fill="#fff" fill-rule="evenodd" d="m17.107 6.464l-9.113 9.128-1.402 1.404-4.732.527-.175.175c-.387.388-1.015.388-1.402 0-.387-.387-.387-1.016 0-1.404l.175-.175.526-4.74 1.402-1.404 9.113-9.128c1.162-1.164 3.045-1.164 4.206 0l1.402 1.404c1.162 1.163 1.162 3.05 0 4.213m-13.319 4.915l-1.402 1.404-.378 1.892c.359-.148.787-.077 1.079.215.292.292.363.721.215 1.08l1.888-.378 1.402-1.404-2.804-2.809"/>
</svg>

<svg xmlns="http://www.w3.org/2000/svg" preserveAspectRatio="xMidYMid" width="18" height="18" viewBox="0 0 18 18">
  <path fill="#ffffff" fill-rule="evenodd" d="M17.107,6.464 L7.994,15.592 L6.592,16.996 L1.860,17.523 L1.685,17.698 C1.298,18.086 0.670,18.086 0.283,17.698 C-0.104,17.311 -0.104,16.682 0.283,16.294 L0.458,16.119 L0.984,11.379 L2.386,9.975 L11.499,0.847 C12.661,-0.317 14.544,-0.317 15.705,0.847 L17.107,2.251 C18.269,3.414 18.269,5.301 17.107,6.464 ZM3.788,11.379 L2.386,12.783 L2.008,14.675 C2.367,14.527 2.795,14.598 3.087,14.890 C3.379,15.182 3.450,15.611 3.302,15.970 L5.190,15.592 L6.592,14.188 L3.788,11.379 Z"/>
</svg>
